austria/municipalities/70333.svg

<?xml version="1.0" encoding="UTF-8"?>
<!DOCTYPE svg PUBLIC "-//W3C//DTD SVG 1.1//EN" "http://www.w3.org/Graphics/SVG/1.1/DTD/svg11.dtd">
<svg xmlns="http://www.w3.org/2000/svg" version="1.1" width="166px" height="192px" style="shape-rendering:geometricPrecision; text-rendering:geometricPrecision; image-rendering:optimizeQuality; fill-rule:evenodd; clip-rule:evenodd" xmlns:xlink="http://www.w3.org/1999/xlink">
<g><path style="opacity:1" fill="#0b0906" d="M -0.5,-0.5 C 54.8333,-0.5 110.167,-0.5 165.5,-0.5C 165.5,39.5 165.5,79.5 165.5,119.5C 157.038,159.629 132.705,183.629 92.5,191.5C 85.5,191.5 78.5,191.5 71.5,191.5C 30.9271,182.927 6.9271,158.261 -0.5,117.5C -0.5,78.1667 -0.5,38.8333 -0.5,-0.5 Z"/></g>
<g><path style="opacity:1" fill="#e5a41c" d="M 160.5,5.5 C 134.322,65.2 108.655,125.2 83.5,185.5C 82.8333,185.5 82.1667,185.5 81.5,185.5C 56.5966,125.107 30.93,65.1074 4.5,5.5C 30.158,4.16686 56.158,3.5002 82.5,3.5C 108.842,3.5002 134.842,4.16686 160.5,5.5 Z"/></g>
<g><path style="opacity:1" fill="#185b2a" d="M 3.5,6.5 C 29.5,66.1667 55.5,125.833 81.5,185.5C 80.6661,186.748 79.3328,187.415 77.5,187.5C 45.3244,184.149 22.4911,167.815 9,138.5C 6.44097,131.372 4.7743,124.038 4,116.5C 3.50001,79.8348 3.33335,43.1682 3.5,6.5 Z"/></g>
<g><path style="opacity:1" fill="#185b2a" d="M 161.5,111.5 C 158.942,146.13 141.608,169.963 109.5,183C 100.905,186.206 92.2387,187.373 83.5,186.5C 109.557,126.706 135.391,66.7058 161,6.5C 161.5,41.4984 161.667,76.4984 161.5,111.5 Z"/></g>
<g><path style="opacity:1" fill="#0f0c05" d="M 126.5,73.5 C 125.662,73.1583 125.328,72.4916 125.5,71.5C 126.617,63.7318 124.95,56.7318 120.5,50.5C 119.998,49.479 119.332,49.3123 118.5,50C 116.266,52.0627 114.266,54.2294 112.5,56.5C 112.754,54.5992 112.42,53.9326 111.5,54.5C 104.388,54.8258 97.3883,54.1591 90.5,52.5C 87.403,52.383 84.7363,53.383 82.5,55.5C 80.2637,53.383 77.597,52.383 74.5,52.5C 67.5979,53.9939 60.5979,54.8272 53.5,55C 54.056,55.3826 54.3893,55.8826 54.5,56.5C 53.8333,56.5 53.5,56.8333 53.5,57.5C 51.1938,54.5271 48.5272,51.8605 45.5,49.5C 44.8333,49.5 44.1667,49.5 43.5,49.5C 43.7828,48.7109 44.2828,48.0442 45,47.5C 45.3333,37.8333 45.6667,28.1667 46,18.5C 46.1858,16.0995 46.6858,13.7662 47.5,11.5C 50.961,13.8835 54.7943,14.8835 59,14.5C 66.9862,13.336 74.9862,12.336 83,11.5C 90.5045,12.3884 98.0045,13.3884 105.5,14.5C 109.906,14.9081 113.906,13.9081 117.5,11.5C 118.086,11.7093 118.586,12.0426 119,12.5C 119.294,24.5225 119.961,36.5225 121,48.5C 127.092,55.8689 128.925,64.2023 126.5,73.5 Z"/></g>
<g><path style="opacity:1" fill="#c78f20" d="M 83.5,19.5 C 83.1034,20.525 82.4368,20.6917 81.5,20C 79.8065,17.3103 77.4732,15.3103 74.5,14C 76.5787,13.1923 78.5787,13.359 80.5,14.5C 80.9572,16.5976 81.9572,18.2642 83.5,19.5 Z"/></g>
<g><path style="opacity:1" fill="#d4981f" d="M 83.5,19.5 C 83.3756,14.453 85.7089,12.6197 90.5,14C 88.0043,15.6665 85.671,17.4998 83.5,19.5 Z"/></g>
<g><path style="opacity:1" fill="#e0a01d" d="M 47.5,13.5 C 49.1401,14.3201 50.8068,15.1534 52.5,16C 60.7266,15.4578 68.3933,17.1245 75.5,21C 80.3163,26.7399 80.8163,32.9066 77,39.5C 69,47.5 61,47.5 53,39.5C 49.3816,31.2364 47.5483,22.5697 47.5,13.5 Z"/></g>
<g><path style="opacity:1" fill="#dfa01d" d="M 116.5,13.5 C 117.855,22.4831 116.355,31.1498 112,39.5C 106.135,45.9693 99.3017,47.136 91.5,43C 82.5638,33.2216 83.5638,24.8883 94.5,18C 100.436,16.8613 106.436,16.1946 112.5,16C 114.066,15.3918 115.4,14.5585 116.5,13.5 Z"/></g>
<g><path style="opacity:1" fill="#0c0904" d="M 54.5,18.5 C 60.7316,17.9386 66.7316,18.772 72.5,21C 75.9148,25.0638 76.4148,29.5638 74,34.5C 64.8551,39.9014 57.8551,37.9014 53,28.5C 52.063,24.8326 52.563,21.4993 54.5,18.5 Z"/></g>
<g><path style="opacity:1" fill="#0b0804" d="M 96.5,18.5 C 101.762,18.1953 106.928,18.5286 112,19.5C 113.66,32.1721 108.16,38.0054 95.5,37C 89.9109,34.5493 88.0776,30.3826 90,24.5C 91.4936,21.6865 93.6603,19.6865 96.5,18.5 Z"/></g>
<g><path style="opacity:1" fill="#18190e" d="M 160.5,5.5 C 161.833,22.8205 162.5,40.4871 162.5,58.5C 162.5,76.3365 162.167,94.0032 161.5,111.5C 161.667,76.4984 161.5,41.4984 161,6.5C 135.391,66.7058 109.557,126.706 83.5,186.5C 83.5,186.167 83.5,185.833 83.5,185.5C 108.655,125.2 134.322,65.2 160.5,5.5 Z"/></g>
<g><path style="opacity:1" fill="#d4981f" d="M 70.5,23.5 C 73.1402,25.8794 73.1402,28.3794 70.5,31C 64,32.5 61.5,30 63,23.5C 65.623,20.8763 68.123,20.8763 70.5,23.5 Z"/></g>
<g><path style="opacity:1" fill="#ce9420" d="M 95.5,21.5 C 102.519,21.7232 104.519,24.8899 101.5,31C 96.3272,32.8711 93.3272,31.2045 92.5,26C 93.3146,24.3566 94.3146,22.8566 95.5,21.5 Z"/></g>
<g><path style="opacity:1" fill="#0d0a05" d="M 95.5,23.5 C 97.0682,25.9312 98.5682,25.9312 100,23.5C 102.051,25.8091 101.884,27.9757 99.5,30C 94.7915,30.082 93.4582,27.9154 95.5,23.5 Z"/></g>
<g><path style="opacity:1" fill="#120e07" d="M 70.5,23.5 C 71.4728,28.0057 69.8061,30.1724 65.5,30C 63.1157,27.9757 62.949,25.8091 65,23.5C 65.6667,24.1667 66.3333,24.8333 67,25.5C 67.8159,24.1772 68.9826,23.5106 70.5,23.5 Z"/></g>
<g><path style="opacity:1" fill="#da9c1e" d="M 81.5,39.5 C 83.6899,40.8022 85.6899,42.4689 87.5,44.5C 85.5879,46.6572 83.9213,48.9906 82.5,51.5C 81.0348,49.4006 79.7015,47.2339 78.5,45C 79.741,43.2691 80.741,41.4358 81.5,39.5 Z"/></g>
<g><path style="opacity:1" fill="#e4a31c" d="M 45.5,49.5 C 48.5272,51.8605 51.1938,54.5271 53.5,57.5C 56.8719,65.0341 55.8719,71.8674 50.5,78C 48.0257,80.0985 45.359,80.5985 42.5,79.5C 37.6547,68.7834 38.6547,58.7834 45.5,49.5 Z"/></g>
<g><path style="opacity:1" fill="#e5a41c" d="M 125.5,71.5 C 124.754,74.1394 123.754,76.8061 122.5,79.5C 120.45,80.6627 118.45,80.4961 116.5,79C 108.813,72.7056 107.48,65.2056 112.5,56.5C 114.266,54.2294 116.266,52.0627 118.5,50C 119.332,49.3123 119.998,49.479 120.5,50.5C 124.95,56.7318 126.617,63.7318 125.5,71.5 Z"/></g>
<g><path style="opacity:1" fill="#e5a41c" d="M 111.5,54.5 C 110.346,57.4788 109.18,60.4788 108,63.5C 104.919,84.3193 101.086,104.986 96.5,125.5C 88.2481,129.369 84.2481,126.702 84.5,117.5C 83.1667,117.5 81.8333,117.5 80.5,117.5C 81.6229,124.272 78.7896,127.606 72,127.5C 70.6349,127.156 69.4682,126.489 68.5,125.5C 64.0897,104.614 60.2564,83.6144 57,62.5C 56.4275,60.3594 55.5942,58.3594 54.5,56.5C 54.3893,55.8826 54.056,55.3826 53.5,55C 60.5979,54.8272 67.5979,53.9939 74.5,52.5C 77.597,52.383 80.2637,53.383 82.5,55.5C 84.7363,53.383 87.403,52.383 90.5,52.5C 97.3883,54.1591 104.388,54.8258 111.5,54.5 Z"/></g>
<g><path style="opacity:1" fill="#1a1a10" d="M 3.5,6.5 C 3.5,5.83333 3.83333,5.5 4.5,5.5C 30.93,65.1074 56.5966,125.107 81.5,185.5C 55.5,125.833 29.5,66.1667 3.5,6.5 Z"/></g>
<g><path style="opacity:1" fill="#19140b" d="M 43.5,49.5 C 44.1667,49.5 44.8333,49.5 45.5,49.5C 38.6547,58.7834 37.6547,68.7834 42.5,79.5C 45.359,80.5985 48.0257,80.0985 50.5,78C 55.8719,71.8674 56.8719,65.0341 53.5,57.5C 53.5,56.8333 53.8333,56.5 54.5,56.5C 55.5942,58.3594 56.4275,60.3594 57,62.5C 60.2564,83.6144 64.0897,104.614 68.5,125.5C 69.4682,126.489 70.6349,127.156 72,127.5C 78.7896,127.606 81.6229,124.272 80.5,117.5C 81.8333,117.5 83.1667,117.5 84.5,117.5C 84.2481,126.702 88.2481,129.369 96.5,125.5C 101.086,104.986 104.919,84.3193 108,63.5C 109.18,60.4788 110.346,57.4788 111.5,54.5C 112.42,53.9326 112.754,54.5992 112.5,56.5C 107.48,65.2056 108.813,72.7056 116.5,79C 118.45,80.4961 120.45,80.6627 122.5,79.5C 123.754,76.8061 124.754,74.1394 125.5,71.5C 125.328,72.4916 125.662,73.1583 126.5,73.5C 121.178,90.2879 114.011,106.288 105,121.5C 102.795,124.04 100.295,126.207 97.5,128C 98.9183,136.012 98.0849,143.845 95,151.5C 94.0975,152.701 92.9308,153.535 91.5,154C 85.5,154.667 79.5,154.667 73.5,154C 71.3333,153.167 69.8333,151.667 69,149.5C 67.0664,142.343 66.5664,135.177 67.5,128C 62.0357,123.919 57.869,118.752 55,112.5C 49.4505,101.402 44.4505,90.0683 40,78.5C 38.4942,71.5667 38.1609,64.5667 39,57.5C 39.7542,54.3156 41.2542,51.6489 43.5,49.5 Z"/></g>
<g><path style="opacity:1" fill="#d3981f" d="M 112.5,95.5 C 113.643,95.9081 114.643,96.5748 115.5,97.5C 111.937,104.959 108.103,112.293 104,119.5C 106.507,111.485 109.34,103.485 112.5,95.5 Z"/></g>
<g><path style="opacity:1" fill="#d4981f" d="M 49.5,96.5 C 50.8333,96.5 52.1667,96.5 53.5,96.5C 55.8678,104.776 58.7011,112.776 62,120.5C 57.0425,112.918 52.8758,104.918 49.5,96.5 Z"/></g>
<g><path style="opacity:1" fill="#dd9e1e" d="M 104.5,92.5 C 106.924,92.1924 109.257,92.5258 111.5,93.5C 108.83,102.506 105.33,111.173 101,119.5C 102.021,110.518 103.187,101.518 104.5,92.5 Z"/></g>
<g><path style="opacity:1" fill="#e0a01d" d="M 57.5,92.5 C 58.5,92.5 59.5,92.5 60.5,92.5C 62.1793,102.196 63.6793,111.863 65,121.5C 60.2122,112.635 56.7122,103.302 54.5,93.5C 55.791,93.7373 56.791,93.404 57.5,92.5 Z"/></g>
<g><path style="opacity:1" fill="#dc9d1e" d="M 116.5,81.5 C 118.312,81.7713 119.978,82.438 121.5,83.5C 119.994,87.8445 117.994,91.8445 115.5,95.5C 114.119,95.0004 113.453,94.0004 113.5,92.5C 114.348,88.771 115.348,85.1044 116.5,81.5 Z"/></g>
<g><path style="opacity:1" fill="#dfa01d" d="M 45.5,81.5 C 46.8221,81.33 47.9887,81.6634 49,82.5C 49.8343,85.669 50.6676,88.8357 51.5,92C 51.6125,93.6624 50.9458,94.8291 49.5,95.5C 47.2144,91.4799 45.2144,87.3133 43.5,83C 44.4158,82.7216 45.0825,82.2216 45.5,81.5 Z"/></g>
<g><path style="opacity:1" fill="#1c160b" d="M 83.5,73.5 C 86.2469,73.1866 88.9135,73.52 91.5,74.5C 88.1142,82.4951 85.4476,82.1617 83.5,73.5 Z"/></g>
<g><path style="opacity:1" fill="#1b150b" d="M 74.5,73.5 C 76.924,73.1924 79.2573,73.5258 81.5,74.5C 78.5493,83.6201 76.216,83.2868 74.5,73.5 Z"/></g>
<g><path style="opacity:1" fill="#e2a11d" d="M 55.5,73.5 C 57.3549,78.2132 58.6882,83.2132 59.5,88.5C 58.0061,92.0753 55.8394,92.4086 53,89.5C 51.8591,86.9382 51.0257,84.2716 50.5,81.5C 52.1836,78.8223 53.8502,76.1556 55.5,73.5 Z"/></g>
<g><path style="opacity:1" fill="#e1a11d" d="M 108.5,72.5 C 110.476,75.4836 112.476,78.4836 114.5,81.5C 113.911,84.0217 113.245,86.5217 112.5,89C 110.167,92.3333 107.833,92.3333 105.5,89C 106.742,83.534 107.742,78.034 108.5,72.5 Z"/></g>
<g><path style="opacity:1" fill="#140f07" d="M 88.5,65.5 C 90.8568,65.3367 93.1902,65.5034 95.5,66C 94.2062,68.087 93.0395,70.2537 92,72.5C 90.295,70.4234 89.1283,68.09 88.5,65.5 Z"/></g>
<g><path style="opacity:1" fill="#120f06" d="M 79.5,65.5 C 81.7354,65.2053 83.7354,65.5386 85.5,66.5C 83.3665,74.1533 81.3665,73.82 79.5,65.5 Z"/></g>
<g><path style="opacity:1" fill="#020201" d="M 70.5,65.5 C 77.3135,64.7506 78.3135,66.7506 73.5,71.5C 71.9617,69.7567 70.9617,67.7567 70.5,65.5 Z"/></g>
<g><path style="opacity:1" fill="#866222" d="M 79.5,65.5 C 81.6934,64.2031 84.0268,64.2031 86.5,65.5C 86.3764,66.1067 86.0431,66.44 85.5,66.5C 83.7354,65.5386 81.7354,65.2053 79.5,65.5 Z"/></g>
<g><path style="opacity:1" fill="#fdfdfd" d="M -0.5,117.5 C 6.9271,158.261 30.9271,182.927 71.5,191.5C 47.5,191.5 23.5,191.5 -0.5,191.5C -0.5,166.833 -0.5,142.167 -0.5,117.5 Z"/></g>
<g><path style="opacity:1" fill="#fdfdfd" d="M 165.5,119.5 C 165.5,143.5 165.5,167.5 165.5,191.5C 141.167,191.5 116.833,191.5 92.5,191.5C 132.705,183.629 157.038,159.629 165.5,119.5 Z"/></g>
<g><path style="opacity:1" fill="#e4a31c" d="M 79.5,130.5 C 81.5,130.5 83.5,130.5 85.5,130.5C 85.2876,135.443 86.2876,136.11 88.5,132.5C 89.9247,137.73 91.0914,137.73 92,132.5C 93.2891,137.784 94.6225,137.784 96,132.5C 96.664,139.373 95.4973,145.873 92.5,152C 74.3489,157.846 66.5155,151.346 69,132.5C 70.3775,137.784 71.7109,137.784 73,132.5C 74.6858,137.659 76.0191,137.325 77,131.5C 78.4578,136.594 79.2912,136.261 79.5,130.5 Z"/></g>
</svg>

<svg xmlns="http://www.w3.org/2000/svg" width="166" height="192" style="shape-rendering:geometricPrecision;text-rendering:geometricPrecision;image-rendering:optimizeQuality;fill-rule:evenodd;clip-rule:evenodd"><path style="opacity:1" fill="#0b0906" d="M-.5-.5h166v120c-8.462 40.129-32.795 64.129-73 72h-21c-40.573-8.573-64.573-33.239-72-74V-.5z"/><path style="opacity:1" fill="#e5a41c" d="M160.5 5.5c-26.178 59.7-51.845 119.7-77 180h-2a7460.741 7460.741 0 0 0-77-180c25.658-1.333 51.658-2 78-2s52.342.667 78 2z"/><path style="opacity:1" fill="#185b2a" d="m3.5 6.5 78 179c-.834 1.248-2.167 1.915-4 2-32.176-3.351-55.009-19.685-68.5-49a92.996 92.996 0 0 1-5-22 6050.43 6050.43 0 0 1-.5-110zM161.5 111.5c-2.558 34.63-19.892 58.463-52 71.5-8.595 3.206-17.261 4.373-26 3.5A22290.54 22290.54 0 0 0 161 6.5c.5 34.998.667 69.998.5 105z"/><path style="opacity:1" fill="#0f0c05" d="M126.5 73.5c-.838-.342-1.172-1.008-1-2 1.117-7.768-.55-14.768-5-21-.502-1.021-1.168-1.188-2-.5a53.871 53.871 0 0 0-6 6.5c.254-1.9-.08-2.567-1-2a74.646 74.646 0 0 1-21-2c-3.097-.117-5.764.883-8 3-2.236-2.117-4.903-3.117-8-3a111.924 111.924 0 0 1-21 2.5c.556.383.89.883 1 1.5-.667 0-1 .333-1 1a45.428 45.428 0 0 0-8-8h-2c.283-.79.783-1.456 1.5-2l1-29c.186-2.4.686-4.734 1.5-7 3.461 2.383 7.294 3.383 11.5 3a592.964 592.964 0 0 1 24-3 772.189 772.189 0 0 1 22.5 3c4.406.408 8.406-.592 12-3 .586.21 1.086.543 1.5 1a580.744 580.744 0 0 0 2 36c6.092 7.369 7.925 15.702 5.5 25z"/><path style="opacity:1" fill="#c78f20" d="M83.5 19.5c-.397 1.025-1.063 1.192-2 .5-1.694-2.69-4.027-4.69-7-6 2.079-.808 4.079-.641 6 .5.457 2.098 1.457 3.764 3 5z"/><path style="opacity:1" fill="#d4981f" d="M83.5 19.5c-.124-5.047 2.209-6.88 7-5.5a57.141 57.141 0 0 0-7 5.5z"/><path style="opacity:1" fill="#e0a01d" d="m47.5 13.5 5 2.5c8.227-.542 15.893 1.125 23 5 4.816 5.74 5.316 11.907 1.5 18.5-8 8-16 8-24 0-3.618-8.264-5.452-16.93-5.5-26z"/><path style="opacity:1" fill="#dfa01d" d="M116.5 13.5c1.355 8.983-.145 17.65-4.5 26-5.865 6.47-12.698 7.636-20.5 3.5-8.936-9.778-7.936-18.112 3-25a114.969 114.969 0 0 1 18-2c1.566-.608 2.9-1.441 4-2.5z"/><path style="opacity:1" fill="#0c0904" d="M54.5 18.5c6.232-.561 12.232.272 18 2.5 3.415 4.064 3.915 8.564 1.5 13.5-9.145 5.401-16.145 3.401-21-6-.937-3.667-.437-7 1.5-10z"/><path style="opacity:1" fill="#0b0804" d="M96.5 18.5a62.787 62.787 0 0 1 15.5 1c1.66 12.672-3.84 18.505-16.5 17.5-5.59-2.45-7.422-6.617-5.5-12.5 1.494-2.814 3.66-4.814 6.5-6z"/><path style="opacity:1" fill="#18190e" d="M160.5 5.5c1.333 17.32 2 34.987 2 53 0 17.837-.333 35.503-1 53 .167-35.002 0-70.002-.5-105a22290.54 22290.54 0 0 1-77.5 180v-1c25.155-60.3 50.822-120.3 77-180z"/><path style="opacity:1" fill="#d4981f" d="M70.5 23.5c2.64 2.38 2.64 4.88 0 7.5-6.5 1.5-9-1-7.5-7.5 2.623-2.624 5.123-2.624 7.5 0z"/><path style="opacity:1" fill="#ce9420" d="M95.5 21.5c7.019.223 9.019 3.39 6 9.5-5.173 1.871-8.173.204-9-5a20.938 20.938 0 0 1 3-4.5z"/><path style="opacity:1" fill="#0d0a05" d="M95.5 23.5c1.568 2.431 3.068 2.431 4.5 0 2.051 2.31 1.884 4.476-.5 6.5-4.709.082-6.042-2.085-4-6.5z"/><path style="opacity:1" fill="#120e07" d="M70.5 23.5c.973 4.506-.694 6.672-5 6.5-2.384-2.024-2.551-4.19-.5-6.5l2 2c.816-1.323 1.983-1.99 3.5-2z"/><path style="opacity:1" fill="#da9c1e" d="M81.5 39.5c2.19 1.302 4.19 2.969 6 5a40.946 40.946 0 0 0-5 7 65.858 65.858 0 0 1-4-6.5 25.196 25.196 0 0 0 3-5.5z"/><path style="opacity:1" fill="#e4a31c" d="M45.5 49.5a45.428 45.428 0 0 1 8 8c3.372 7.534 2.372 14.367-3 20.5-2.474 2.099-5.141 2.599-8 1.5-4.845-10.717-3.845-20.717 3-30z"/><path style="opacity:1" fill="#e5a41c" d="M125.5 71.5c-.746 2.64-1.746 5.306-3 8-2.05 1.163-4.05.996-6-.5-7.687-6.294-9.02-13.794-4-22.5a53.871 53.871 0 0 1 6-6.5c.832-.688 1.498-.521 2 .5 4.45 6.232 6.117 13.232 5 21z"/><path style="opacity:1" fill="#e5a41c" d="M111.5 54.5c-1.154 2.979-2.32 5.979-3.5 9a863.505 863.505 0 0 1-11.5 62c-8.252 3.869-12.252 1.202-12-8h-4c1.123 6.772-1.71 10.106-8.5 10a7.298 7.298 0 0 1-3.5-2 1162.55 1162.55 0 0 1-11.5-63 23.99 23.99 0 0 0-2.5-6c-.11-.617-.444-1.117-1-1.5a111.924 111.924 0 0 0 21-2.5c3.097-.117 5.764.883 8 3 2.236-2.117 4.903-3.117 8-3a74.646 74.646 0 0 0 21 2z"/><path style="opacity:1" fill="#1a1a10" d="M3.5 6.5c0-.667.333-1 1-1a7460.741 7460.741 0 0 1 77 180l-78-179z"/><path style="opacity:1" fill="#19140b" d="M43.5 49.5h2c-6.845 9.283-7.845 19.283-3 30 2.859 1.099 5.526.599 8-1.5 5.372-6.133 6.372-12.966 3-20.5 0-.667.333-1 1-1a23.99 23.99 0 0 1 2.5 6 1162.55 1162.55 0 0 0 11.5 63 7.298 7.298 0 0 0 3.5 2c6.79.106 9.623-3.228 8.5-10h4c-.252 9.202 3.748 11.869 12 8a863.505 863.505 0 0 0 11.5-62c1.18-3.021 2.346-6.021 3.5-9 .92-.567 1.254.1 1 2-5.02 8.706-3.687 16.206 4 22.5 1.95 1.496 3.95 1.663 6 .5 1.254-2.694 2.254-5.36 3-8-.172.992.162 1.658 1 2a230.646 230.646 0 0 1-21.5 48 34.706 34.706 0 0 1-7.5 6.5c1.418 8.012.585 15.845-2.5 23.5a6.977 6.977 0 0 1-3.5 2.5c-6 .667-12 .667-18 0-2.167-.833-3.667-2.333-4.5-4.5-1.934-7.157-2.434-14.323-1.5-21.5-5.464-4.081-9.631-9.248-12.5-15.5a385.335 385.335 0 0 1-15-34 63.173 63.173 0 0 1-1-21c.754-3.184 2.254-5.851 4.5-8z"/><path style="opacity:1" fill="#d3981f" d="M112.5 95.5a7.468 7.468 0 0 1 3 2 345.174 345.174 0 0 1-11.5 22 345.535 345.535 0 0 1 8.5-24z"/><path style="opacity:1" fill="#d4981f" d="M49.5 96.5h4a203.667 203.667 0 0 0 8.5 24 136.77 136.77 0 0 1-12.5-24z"/><path style="opacity:1" fill="#dd9e1e" d="M104.5 92.5a13.118 13.118 0 0 1 7 1 146.467 146.467 0 0 1-10.5 26 867.164 867.164 0 0 1 3.5-27z"/><path style="opacity:1" fill="#e0a01d" d="M57.5 92.5h3a831.43 831.43 0 0 1 4.5 29 109.28 109.28 0 0 1-10.5-28c1.291.237 2.291-.096 3-1z"/><path style="opacity:1" fill="#dc9d1e" d="M116.5 81.5a11.64 11.64 0 0 1 5 2c-1.506 4.344-3.506 8.344-6 12-1.381-.5-2.047-1.5-2-3a132.955 132.955 0 0 1 3-11z"/><path style="opacity:1" fill="#dfa01d" d="M45.5 81.5c1.322-.17 2.489.163 3.5 1l2.5 9.5c.112 1.662-.554 2.83-2 3.5a99.965 99.965 0 0 1-6-12.5c.916-.278 1.583-.778 2-1.5z"/><path style="opacity:1" fill="#1c160b" d="M83.5 73.5c2.747-.313 5.413.02 8 1-3.386 7.995-6.052 7.662-8-1z"/><path style="opacity:1" fill="#1b150b" d="M74.5 73.5a13.117 13.117 0 0 1 7 1c-2.95 9.12-5.284 8.787-7-1z"/><path style="opacity:1" fill="#e2a11d" d="M55.5 73.5c1.855 4.713 3.188 9.713 4 15-1.494 3.575-3.66 3.909-6.5 1a36.16 36.16 0 0 1-2.5-8 1750.3 1750.3 0 0 0 5-8z"/><path style="opacity:1" fill="#e1a11d" d="M108.5 72.5c1.976 2.984 3.976 5.984 6 9a124.066 124.066 0 0 1-2 7.5c-2.333 3.333-4.667 3.333-7 0a192.062 192.062 0 0 0 3-16.5z"/><path style="opacity:1" fill="#140f07" d="M88.5 65.5c2.357-.163 4.69.003 7 .5a60.727 60.727 0 0 0-3.5 6.5 17.343 17.343 0 0 1-3.5-7z"/><path style="opacity:1" fill="#120f06" d="M79.5 65.5c2.235-.295 4.235.039 6 1-2.133 7.653-4.133 7.32-6-1z"/><path style="opacity:1" fill="#020201" d="M70.5 65.5c6.814-.75 7.814 1.25 3 6a12.802 12.802 0 0 1-3-6z"/><path style="opacity:1" fill="#866222" d="M79.5 65.5c2.193-1.297 4.527-1.297 7 0-.124.607-.457.94-1 1-1.765-.961-3.765-1.295-6-1z"/><path style="opacity:1" fill="#fdfdfd" d="M-.5 117.5c7.427 40.761 31.427 65.427 72 74h-72v-74zM165.5 119.5v72h-73c40.205-7.871 64.538-31.871 73-72z"/><path style="opacity:1" fill="#e4a31c" d="M79.5 130.5h6c-.212 4.943.788 5.61 3 2 1.425 5.23 2.591 5.23 3.5 0 1.29 5.284 2.623 5.284 4 0 .664 6.873-.503 13.373-3.5 19.5-18.151 5.846-25.984-.654-23.5-19.5 1.377 5.284 2.71 5.284 4 0 1.686 5.159 3.02 4.825 4-1 1.458 5.094 2.291 4.761 2.5-1z"/></svg>
